static/assets/template/assets/img/icons/essential/detailed/Closed.svg

<svg height="144" viewBox="0 0 150 144" width="150" xmlns="http://www.w3.org/2000/svg"><g fill="none" fill-rule="evenodd" transform="translate(2 2)"><path d="m139.1 110.6-115.3 28.8c-5 1.2-10-1.8-11.3-6.8l-11.8-47.2c-1.2-5 1.8-10 6.8-11.3l115.3-28.8c5-1.2 10 1.8 11.3 6.8l11.8 47.2c1.2 5-1.9 10.1-6.8 11.3z" fill-rule="nonzero"/><path d="m139.6 110.5-112 28c-4.7 1.2-9.4-1.7-10.6-6.4l-10.7-42.6c-1.2-4.7 1.7-9.4 6.4-10.6l112-28c4.7-1.2 9.4 1.7 10.6 6.4l10.7 42.6c1.1 4.7-1.7 9.4-6.4 10.6z" fill-rule="nonzero"/><g stroke-linecap="round" stroke-linejoin="round" stroke-width="3"><path d="m106.8 118.7-83 20.7c-5 1.2-10-1.8-11.3-6.8l-11.8-47.2c-1.2-5 1.8-10 6.8-11.3l18-4.5"/><path d="m117.4 116.1-1.1.2"/><path d="m35.5 67.2 87.3-21.8c5-1.2 10 1.8 11.3 6.8l11.8 47.2c1.2 5-1.8 10-6.8 11.3l-12.9 3.2"/><path d="m19.3 71.3 28-55.6c-1.6-1.1-2.8-2.8-3.4-4.9-1.1-4.5 1.6-9.1 6.1-10.2s9.1 1.6 10.2 6.1c.5 1.9.3 3.9-.5 5.5l51.2 36.1"/></g><circle cx="51.58723" cy="8.20063" fill-rule="nonzero" r="2.99985" transform="matrix(.97014838 -.2425121 .2425121 .97014838 -.44879 12.755329)"/><g fill-rule="nonzero"><g transform="translate(17 92)"><path d="m12.1 22.6c-4.9 0-9-3.2-10.1-7.7-1.3-5.5 2.3-11 8-12.4.8-.2 1.7-.3 2.5-.3 3.8 0 6.2 2.1 6.3 2.2.5.5.6 1.3.3 1.9l-2 3.4c-.2.4-.6.7-1 .7-.1 0-.2 0-.2 0-.4 0-.7-.1-1-.4 0 0-1-.8-2.4-.8-.3 0-.6 0-.8.1-1.8.4-2.8 2-2.4 3.8.4 1.5 1.5 2.5 3 2.5.3 0 .6 0 .9-.1 2-.5 2.8-2.2 2.8-2.3.2-.4.5-.7 1-.8.1 0 .3-.1.4-.1.3 0 .6.1.8.3l3.2 2.1c.6.4.8 1.1.6 1.8-.1.2-1.7 4.5-7.1 5.8-1.1.2-2 .3-2.8.3z"/><path d="m12.4 3.7c3.3 0 5.3 1.8 5.3 1.8l-2 3.4s-1.4-1.2-3.4-1.2c-.4 0-.8 0-1.2.1-2.6.6-4.1 3-3.5 5.7.5 2.2 2.3 3.6 4.5 3.6.4 0 .8 0 1.2-.1 2.7-.7 3.8-3.1 3.8-3.1l3.2 2.1s-1.4 3.7-6.1 4.8c-.8.2-1.5.3-2.3.3-4.1 0-7.7-2.7-8.6-6.6-1.1-4.6 1.8-9.4 6.9-10.6.8-.1 1.6-.2 2.2-.2zm0-3c-1 0-1.9.1-2.9.3-3.2.8-5.8 2.7-7.5 5.3-1.7 2.7-2.3 5.8-1.5 8.9 1.3 5.2 6 8.9 11.6 8.9 1 0 2-.1 3-.4 4.9-1.2 7.4-4.8 8.2-6.7.5-1.3 0-2.8-1.1-3.5l-3.2-2.1c-.3-.2-.6-.3-.9-.4.1-.2.3-.3.4-.5l2-3.4c.7-1.2.5-2.8-.6-3.7-.4-.3-3.1-2.7-7.5-2.7zm-.2 13.4c-.8 0-1.3-.5-1.5-1.3-.2-1 .2-1.8 1.2-2 .2 0 .3-.1.5-.1.7 0 1.4.4 1.5.5.3.3.7.5 1.1.6-.2.2-.3.5-.5.8-.1.2-.7 1.2-1.8 1.4-.2.1-.3.1-.5.1z"/></g><g transform="translate(36 89)"><path d="m7.2 21.7c-.7 0-1.3-.5-1.5-1.1l-3.8-15.9c-.1-.4 0-.8.2-1.1s.5-.6.9-.7l4.3-1h.4c.7 0 1.3.5 1.5 1.1l2.6 10.6 5.6-1.4h.4c.3 0 .5.1.8.2.3.2.6.5.7.9l.9 3.9c.2.8-.3 1.6-1.1 1.8l-11.4 2.7c-.2 0-.3 0-.5 0z"/><path d="m7.7 3.2 2.9 12.1 7.1-1.7.9 3.9-11.4 2.7-3.8-15.9zm0-3c-.2 0-.5 0-.7.1l-4.3 1c-.8.2-1.4.7-1.9 1.4-.4.7-.5 1.5-.4 2.3l3.8 15.9c.2.8.7 1.4 1.4 1.9.5.3 1 .4 1.6.4.2 0 .5 0 .7-.1l11.4-2.7c1.6-.4 2.6-2 2.2-3.6l-.9-3.9c-.3-1.4-1.6-2.3-2.9-2.3-.2 0-.5 0-.7.1l-4.1 1-2.2-9.2c-.4-1.4-1.6-2.3-3-2.3z"/></g><g transform="translate(52 83)"><path d="m12.7 22.5c-4.9 0-9-3.2-10.1-7.7-.6-2.6-.2-5.4 1.3-7.7s3.9-4 6.6-4.7c.9-.2 1.7-.3 2.6-.3 4.9 0 9 3.2 10.1 7.7.6 2.6.2 5.4-1.3 7.7s-3.9 4-6.6 4.7c-.8.2-1.7.3-2.6.3zm.3-13.4c-.3 0-.5 0-.8.1-.8.2-1.5.7-1.9 1.4s-.5 1.6-.3 2.4c.4 1.5 1.5 2.5 3 2.5.3 0 .5 0 .8-.1.8-.2 1.5-.7 1.9-1.4s.5-1.6.3-2.4c-.4-1.6-1.6-2.5-3-2.5z"/><path d="m13.2 3.6c4.1 0 7.7 2.7 8.6 6.6 1.1 4.6-1.8 9.4-6.9 10.6-.8.2-1.5.3-2.3.3-4.1 0-7.7-2.7-8.6-6.6-1.1-4.6 1.8-9.4 6.9-10.6.8-.2 1.6-.3 2.3-.3zm-.3 13.4c.4 0 .7 0 1.1-.1 2.5-.6 4-3 3.3-5.6-.5-2.2-2.4-3.6-4.4-3.6-.4 0-.7 0-1.1.1-2.5.6-4 3-3.3 5.6.6 2.2 2.4 3.6 4.4 3.6zm.3-16.4c-1 0-2 .1-3 .4-3.2.8-5.8 2.7-7.5 5.3-1.7 2.7-2.3 5.8-1.5 8.9 1.3 5.2 6 8.9 11.6 8.9 1 0 2-.1 3-.4 3.2-.8 5.8-2.7 7.5-5.3 1.7-2.7 2.3-5.8 1.5-8.9-1.3-5.3-6-8.9-11.6-8.9zm-.3 13.4c-.7 0-1.3-.5-1.5-1.3-.2-1 .2-1.8 1.1-2 .1 0 .3-.1.4-.1.7 0 1.3.5 1.5 1.3.1.5.1 1-.2 1.3-.2.3-.5.6-1 .7 0 0-.1.1-.3.1z"/></g><g transform="translate(73 78)"><path d="m10.4 22.5c-3.4 0-5.7-1.7-5.8-1.8-.6-.5-.7-1.3-.4-1.9l1.9-3.2c.1-.2.3-.4.6-.6-1.8-.5-3.6-1.7-4.3-4.5-.4-1.7 0-3.5 1.1-5s2.8-2.7 4.9-3.2c.8-.2 1.7-.3 2.5-.3 3 0 4.8 1.4 5 1.5.6.5.7 1.3.3 1.9l-1.9 3.2c0 .1-.1.2-.2.2 2.1.4 4.3 1.5 5 4.7.4 1.9.1 3.7-1 5.3s-2.9 2.7-5.2 3.3c-.8.3-1.7.4-2.5.4zm-1.7-7.1c.4.2.9.4 1.6.4.2 0 .4 0 .6-.1.2 0 .3-.1.3-.1-.4-.1-.9-.1-1.3-.1-.3-.1-.7-.1-1.2-.1z"/><path d="m10.9 3.5c2.6 0 4 1.2 4 1.2l-1.9 3.2s-1-.7-2.2-.7c-.2 0-.5 0-.7.1-1 .2-1.5 1.1-1.4 1.8.5 2.2 7.7-.8 9 4.8.7 2.8-1.1 5.8-5.1 6.8-.8.2-1.5.3-2.2.3-3 0-4.8-1.5-4.8-1.5l1.9-3.2s1.3 1 2.9 1c.3 0 .6 0 .9-.1 1.3-.3 1.9-1.3 1.6-2.2-.5-2.2-7.7.8-9-4.8-.6-2.5 1.2-5.5 4.9-6.4.7-.2 1.4-.3 2.1-.3zm0-3c-.9 0-1.9.1-2.8.3-2.4.6-4.4 1.9-5.8 3.7-1.3 1.9-1.8 4.1-1.3 6.2.6 2.4 1.9 3.9 3.4 4.7l-1.4 2.4c-.8 1.3-.4 2.9.7 3.9.3.2 2.8 2.1 6.7 2.1 1 0 1.9-.1 2.9-.4 2.6-.6 4.7-2 6.1-3.9s1.8-4.3 1.3-6.5c-.7-2.9-2.4-4.4-4.2-5.2l1.1-1.8c.7-1.3.4-2.9-.7-3.8-.5-.1-2.6-1.7-6-1.7z"/></g><g transform="translate(89 73)"><path d="m7.3 23.7c-.7 0-1.3-.5-1.5-1.1l-3.8-15.9c-.2-.8.3-1.6 1.1-1.8l12.3-3h.4c.3 0 .5.1.8.2.3.2.6.5.7.9l.9 3.6c.2.8-.3 1.6-1.1 1.8l-.8.2c.3.2.6.5.7.9l.8 3.4c.1.5-.1 1.1-.4 1.5l1.3-.3h.4c.3 0 .5.1.8.2.3.2.6.5.7.9l.9 3.6c.2.8-.3 1.6-1.1 1.8l-12.5 3c-.4 0-.5.1-.6.1z"/><path d="m15.7 3.2.9 3.6-8 1.9.6 2.5 6.2-1.5.8 3.4-6.2 1.5.7 2.7 8.2-2 .9 3.6-12.5 3-3.8-15.9zm0-3c-.2 0-.5 0-.7.1l-12.3 3c-.8.2-1.4.7-1.9 1.4-.4.7-.5 1.5-.4 2.3l3.8 15.9c.3 1.4 1.6 2.3 2.9 2.3.2 0 .5 0 .7-.1l12.5-3c.8-.2 1.4-.7 1.9-1.4.4-.7.5-1.5.4-2.3l-.9-3.6c-.3-1.3-1.4-2.2-2.7-2.3l-.8-3.2c.3-.2.6-.5.8-.9.4-.7.5-1.5.4-2.3l-.9-3.6c-.2-1.3-1.4-2.3-2.8-2.3z"/></g><g transform="translate(106 69)"><path d="m7.5 23c-.7 0-1.3-.5-1.5-1.1l-3.8-15.9c-.2-.8.3-1.6 1.1-1.8l6.2-1.5c.9-.2 1.8-.3 2.6-.3 4.6 0 8.4 3 9.5 7.4 1.3 5.4-2 10.5-7.6 11.8l-6.2 1.5c-.1-.1-.2-.1-.3-.1zm4.5-8.2.4-.1c.7-.2 1.3-.6 1.7-1.2s.5-1.4.3-2.1c-.3-1.3-1.3-2.1-2.5-2.1-.2 0-.5 0-.8.1l-.4.1z"/><path d="m12.1 3.8c3.9 0 7.2 2.5 8.1 6.2 1.1 4.4-1.6 8.8-6.5 10l-6.2 1.5-3.8-15.9 6.2-1.5c.7-.2 1.5-.3 2.2-.3zm-1.2 12.8 1.8-.4c2.2-.5 3.7-2.7 3.1-5.1-.5-2-2.1-3.2-4-3.2-.4 0-.7 0-1.1.1l-1.8.4zm1.2-15.8c-1 0-2 .1-3 .4l-6.2 1.5c-1.6.4-2.6 2-2.2 3.6l3.8 15.9c.3 1.4 1.6 2.3 2.9 2.3.2 0 .5 0 .7-.1l6.2-1.5c6.4-1.5 10.2-7.5 8.7-13.6-1.2-5.1-5.6-8.5-10.9-8.5zm.8 11.5-.2-1c.1.1.2.3.2.5 0 .1.1.3 0 .5z"/></g></g></g></svg>

<?xml version="1.0" encoding="UTF-8"?>
<svg width="150px" height="144px" viewBox="0 0 150 144" version="1.1" xmlns="http://www.w3.org/2000/svg" xmlns:xlink="http://www.w3.org/1999/xlink">
    <!-- Generator: Sketch 51.2 (57519) - http://www.bohemiancoding.com/sketch -->
    <title>Closed</title>
    <desc>Created with Sketch.</desc>
    <defs></defs>
    <g id="Page-1" stroke="none" stroke-width="1" fill="none" fill-rule="evenodd">
        <g id="Closed" transform="translate(2.000000, 2.000000)">
            <path d="M139.1,110.6 L23.8,139.4 C18.8,140.6 13.8,137.6 12.5,132.6 L0.7,85.4 C-0.5,80.4 2.5,75.4 7.5,74.1 L122.8,45.3 C127.8,44.1 132.8,47.1 134.1,52.1 L145.9,99.3 C147.1,104.3 144,109.4 139.1,110.6 Z" id="Shape" class="fill-neutral" fill-rule="nonzero"></path>
            <path d="M139.6,110.5 L27.6,138.5 C22.9,139.7 18.2,136.8 17,132.1 L6.3,89.5 C5.1,84.8 8,80.1 12.7,78.9 L124.7,50.9 C129.4,49.7 134.1,52.6 135.3,57.3 L146,99.9 C147.1,104.6 144.3,109.3 139.6,110.5 Z" id="Shape" class="fill-primary-200" fill-rule="nonzero"></path>
            <path d="M106.8,118.7 L23.8,139.4 C18.8,140.6 13.8,137.6 12.5,132.6 L0.7,85.4 C-0.5,80.4 2.5,75.4 7.5,74.1 L25.5,69.6" id="Shape" class="stroke-primary" stroke-width="3" stroke-linecap="round" stroke-linejoin="round"></path>
            <path d="M117.4,116.1 L116.3,116.3" id="Shape" class="stroke-primary" stroke-width="3" stroke-linecap="round" stroke-linejoin="round"></path>
            <path d="M35.5,67.2 L122.8,45.4 C127.8,44.2 132.8,47.2 134.1,52.2 L145.9,99.4 C147.1,104.4 144.1,109.4 139.1,110.7 L126.2,113.9" id="Shape" class="stroke-primary" stroke-width="3" stroke-linecap="round" stroke-linejoin="round"></path>
            <path d="M19.3,71.3 L47.3,15.7 C45.7,14.6 44.5,12.9 43.9,10.8 C42.8,6.3 45.5,1.7 50,0.6 C54.5,-0.5 59.1,2.2 60.2,6.7 C60.7,8.6 60.5,10.6 59.7,12.2 L110.9,48.3" id="Shape" class="stroke-primary" stroke-width="3" stroke-linecap="round" stroke-linejoin="round"></path>
            <circle id="Oval" class="fill-primary" fill-rule="nonzero" transform="translate(51.587230, 8.200630) rotate(-14.034854) translate(-51.587230, -8.200630) " cx="51.58723" cy="8.20063" r="2.99985039"></circle>
            <g id="Group" transform="translate(17.000000, 69.000000)" fill-rule="nonzero">
                <g transform="translate(0.000000, 23.000000)" id="Shape">
                    <path d="M12.1,22.6 C7.2,22.6 3.1,19.4 2,14.9 C0.7,9.4 4.3,3.9 10,2.5 C10.8,2.3 11.7,2.2 12.5,2.2 C16.3,2.2 18.7,4.3 18.8,4.4 C19.3,4.9 19.4,5.7 19.1,6.3 L17.1,9.7 C16.9,10.1 16.5,10.4 16.1,10.4 C16,10.4 15.9,10.4 15.9,10.4 C15.5,10.4 15.2,10.3 14.9,10 C14.9,10 13.9,9.2 12.5,9.2 C12.2,9.2 11.9,9.2 11.7,9.3 C9.9,9.7 8.9,11.3 9.3,13.1 C9.7,14.6 10.8,15.6 12.3,15.6 C12.6,15.6 12.9,15.6 13.2,15.5 C15.2,15 16,13.3 16,13.2 C16.2,12.8 16.5,12.5 17,12.4 C17.1,12.4 17.3,12.3 17.4,12.3 C17.7,12.3 18,12.4 18.2,12.6 L21.4,14.7 C22,15.1 22.2,15.8 22,16.5 C21.9,16.7 20.3,21 14.9,22.3 C13.8,22.5 12.9,22.6 12.1,22.6 Z" class="fill-neutral"></path>
                    <path d="M12.4,3.7 C15.7,3.7 17.7,5.5 17.7,5.5 L15.7,8.9 C15.7,8.9 14.3,7.7 12.3,7.7 C11.9,7.7 11.5,7.7 11.1,7.8 C8.5,8.4 7,10.8 7.6,13.5 C8.1,15.7 9.9,17.1 12.1,17.1 C12.5,17.1 12.9,17.1 13.3,17 C16,16.3 17.1,13.9 17.1,13.9 L20.3,16 C20.3,16 18.9,19.7 14.2,20.8 C13.4,21 12.7,21.1 11.9,21.1 C7.8,21.1 4.2,18.4 3.3,14.5 C2.2,9.9 5.1,5.1 10.2,3.9 C11,3.8 11.8,3.7 12.4,3.7 Z M12.4,0.7 C11.4,0.7 10.5,0.8 9.5,1 C6.3,1.8 3.7,3.7 2,6.3 C0.3,9 -0.3,12.1 0.5,15.2 C1.8,20.4 6.5,24.1 12.1,24.1 C13.1,24.1 14.1,24 15.1,23.7 C20,22.5 22.5,18.9 23.3,17 C23.8,15.7 23.3,14.2 22.2,13.5 L19,11.4 C18.7,11.2 18.4,11.1 18.1,11 C18.2,10.8 18.4,10.7 18.5,10.5 L20.5,7.1 C21.2,5.9 21,4.3 19.9,3.4 C19.5,3.1 16.8,0.7 12.4,0.7 Z M12.2,14.1 C11.4,14.1 10.9,13.6 10.7,12.8 C10.5,11.8 10.9,11 11.9,10.8 C12.1,10.8 12.2,10.7 12.4,10.7 C13.1,10.7 13.8,11.1 13.9,11.2 C14.2,11.5 14.6,11.7 15,11.8 C14.8,12 14.7,12.3 14.5,12.6 C14.4,12.8 13.8,13.8 12.7,14 C12.5,14.1 12.4,14.1 12.2,14.1 Z" class="fill-primary"></path>
                </g>
                <g transform="translate(19.000000, 20.000000)" id="Shape">
                    <path d="M7.2,21.7 C6.5,21.7 5.9,21.2 5.7,20.6 L1.9,4.7 C1.8,4.3 1.9,3.9 2.1,3.6 C2.3,3.3 2.6,3 3,2.9 L7.3,1.9 C7.4,1.9 7.5,1.9 7.7,1.9 C8.4,1.9 9,2.4 9.2,3 L11.8,13.6 L17.4,12.2 C17.5,12.2 17.6,12.2 17.8,12.2 C18.1,12.2 18.3,12.3 18.6,12.4 C18.9,12.6 19.2,12.9 19.3,13.3 L20.2,17.2 C20.4,18 19.9,18.8 19.1,19 L7.7,21.7 C7.5,21.7 7.4,21.7 7.2,21.7 Z" class="fill-neutral"></path>
                    <path d="M7.7,3.2 L10.6,15.3 L17.7,13.6 L18.6,17.5 L7.2,20.2 L3.4,4.3 L7.7,3.2 Z M7.7,0.2 C7.5,0.2 7.2,0.2 7,0.3 L2.7,1.3 C1.9,1.5 1.3,2 0.8,2.7 C0.4,3.4 0.3,4.2 0.4,5 L4.2,20.9 C4.4,21.7 4.9,22.3 5.6,22.8 C6.1,23.1 6.6,23.2 7.2,23.2 C7.4,23.2 7.7,23.2 7.9,23.1 L19.3,20.4 C20.9,20 21.9,18.4 21.5,16.8 L20.6,12.9 C20.3,11.5 19,10.6 17.7,10.6 C17.5,10.6 17.2,10.6 17,10.7 L12.9,11.7 L10.7,2.5 C10.3,1.1 9.1,0.2 7.7,0.2 Z" class="fill-primary"></path>
                </g>
                <g transform="translate(35.000000, 14.000000)" id="Shape">
                    <path d="M12.7,22.5 C7.8,22.5 3.7,19.3 2.6,14.8 C2,12.2 2.4,9.4 3.9,7.1 C5.4,4.8 7.8,3.1 10.5,2.4 C11.4,2.2 12.2,2.1 13.1,2.1 C18,2.1 22.1,5.3 23.2,9.8 C23.8,12.4 23.4,15.2 21.9,17.5 C20.4,19.8 18,21.5 15.3,22.2 C14.5,22.4 13.6,22.5 12.7,22.5 Z M13,9.1 C12.7,9.1 12.5,9.1 12.2,9.2 C11.4,9.4 10.7,9.9 10.3,10.6 C9.9,11.3 9.8,12.2 10,13 C10.4,14.5 11.5,15.5 13,15.5 C13,15.5 13,15.5 13,15.5 C13.3,15.5 13.5,15.5 13.8,15.4 C14.6,15.2 15.3,14.7 15.7,14 C16.1,13.3 16.2,12.4 16,11.6 C15.6,10 14.4,9.1 13,9.1 Z" class="fill-neutral"></path>
                    <path d="M13.2,3.6 C17.3,3.6 20.9,6.3 21.8,10.2 C22.9,14.8 20,19.6 14.9,20.8 C14.1,21 13.4,21.1 12.6,21.1 C8.5,21.1 4.9,18.4 4,14.5 C2.9,9.9 5.8,5.1 10.9,3.9 C11.7,3.7 12.5,3.6 13.2,3.6 Z M12.9,17 C13.3,17 13.6,17 14,16.9 C16.5,16.3 18,13.9 17.3,11.3 C16.8,9.1 14.9,7.7 12.9,7.7 C12.5,7.7 12.2,7.7 11.8,7.8 C9.3,8.4 7.8,10.8 8.5,13.4 C9.1,15.6 10.9,17 12.9,17 Z M13.2,0.6 C12.2,0.6 11.2,0.7 10.2,1 C7,1.8 4.4,3.7 2.7,6.3 C1,9 0.4,12.1 1.2,15.2 C2.5,20.4 7.2,24.1 12.8,24.1 C13.8,24.1 14.8,24 15.8,23.7 C19,22.9 21.6,21 23.3,18.4 C25,15.7 25.6,12.6 24.8,9.5 C23.5,4.2 18.8,0.6 13.2,0.6 Z M12.9,14 C12.2,14 11.6,13.5 11.4,12.7 C11.2,11.7 11.6,10.9 12.5,10.7 C12.6,10.7 12.8,10.6 12.9,10.6 C13.6,10.6 14.2,11.1 14.4,11.9 C14.5,12.4 14.5,12.9 14.2,13.2 C14,13.5 13.7,13.8 13.2,13.9 C13.2,13.9 13.1,14 12.9,14 Z" class="fill-primary"></path>
                </g>
                <g transform="translate(56.000000, 9.000000)" id="Shape">
                    <path d="M10.4,22.5 C7,22.5 4.7,20.8 4.6,20.7 C4,20.2 3.9,19.4 4.2,18.8 L6.1,15.6 C6.2,15.4 6.4,15.2 6.7,15 C4.9,14.5 3.1,13.3 2.4,10.5 C2,8.8 2.4,7 3.5,5.5 C4.6,4 6.3,2.8 8.4,2.3 C9.2,2.1 10.1,2 10.9,2 C13.9,2 15.7,3.4 15.9,3.5 C16.5,4 16.6,4.8 16.2,5.4 L14.3,8.6 C14.3,8.7 14.2,8.8 14.1,8.8 C16.2,9.2 18.4,10.3 19.1,13.5 C19.5,15.4 19.2,17.2 18.1,18.8 C17,20.4 15.2,21.5 12.9,22.1 C12.1,22.4 11.2,22.5 10.4,22.5 Z M8.7,15.4 C9.1,15.6 9.6,15.8 10.3,15.8 C10.5,15.8 10.7,15.8 10.9,15.7 C11.1,15.7 11.2,15.6 11.2,15.6 C10.8,15.5 10.3,15.5 9.9,15.5 C9.6,15.4 9.2,15.4 8.7,15.4 Z" class="fill-neutral"></path>
                    <path d="M10.9,3.5 C13.5,3.5 14.9,4.7 14.9,4.7 L13,7.9 C13,7.9 12,7.2 10.8,7.2 C10.6,7.2 10.3,7.2 10.1,7.3 C9.1,7.5 8.6,8.4 8.7,9.1 C9.2,11.3 16.4,8.3 17.7,13.9 C18.4,16.7 16.6,19.7 12.6,20.7 C11.8,20.9 11.1,21 10.4,21 C7.4,21 5.6,19.5 5.6,19.5 L7.5,16.3 C7.5,16.3 8.8,17.3 10.4,17.3 C10.7,17.3 11,17.3 11.3,17.2 C12.6,16.9 13.2,15.9 12.9,15 C12.4,12.8 5.2,15.8 3.9,10.2 C3.3,7.7 5.1,4.7 8.8,3.8 C9.5,3.6 10.2,3.5 10.9,3.5 Z M10.9,0.5 C10.9,0.5 10.9,0.5 10.9,0.5 C10,0.5 9,0.6 8.1,0.8 C5.7,1.4 3.7,2.7 2.3,4.5 C1,6.4 0.5,8.6 1,10.7 C1.6,13.1 2.9,14.6 4.4,15.4 L3,17.8 C2.2,19.1 2.6,20.7 3.7,21.7 C4,21.9 6.5,23.8 10.4,23.8 C11.4,23.8 12.3,23.7 13.3,23.4 C15.9,22.8 18,21.4 19.4,19.5 C20.8,17.6 21.2,15.2 20.7,13 C20,10.1 18.3,8.6 16.5,7.8 L17.6,6 C18.3,4.7 18,3.1 16.9,2.2 C16.4,2.1 14.3,0.5 10.9,0.5 Z" class="fill-primary"></path>
                </g>
                <g transform="translate(72.000000, 4.000000)" id="Shape">
                    <path d="M7.3,23.7 C6.6,23.7 6,23.2 5.8,22.6 L2,6.7 C1.8,5.9 2.3,5.1 3.1,4.9 L15.4,1.9 C15.5,1.9 15.6,1.9 15.8,1.9 C16.1,1.9 16.3,2 16.6,2.1 C16.9,2.3 17.2,2.6 17.3,3 L18.2,6.6 C18.4,7.4 17.9,8.2 17.1,8.4 L16.3,8.6 C16.3,8.6 16.3,8.6 16.3,8.6 C16.6,8.8 16.9,9.1 17,9.5 L17.8,12.9 C17.9,13.4 17.7,14 17.4,14.4 L18.7,14.1 C18.8,14.1 18.9,14.1 19.1,14.1 C19.4,14.1 19.6,14.2 19.9,14.3 C20.2,14.5 20.5,14.8 20.6,15.2 L21.5,18.8 C21.7,19.6 21.2,20.4 20.4,20.6 L7.9,23.6 C7.5,23.6 7.4,23.7 7.3,23.7 Z" class="fill-neutral"></path>
                    <path d="M15.7,3.2 L16.6,6.8 L8.6,8.7 L9.2,11.2 L15.4,9.7 L16.2,13.1 L10,14.6 L10.7,17.3 L18.9,15.3 L19.8,18.9 L7.3,21.9 L3.5,6 L15.7,3.2 Z M15.7,0.2 C15.5,0.2 15.2,0.2 15,0.3 L2.7,3.3 C1.9,3.5 1.3,4 0.8,4.7 C0.4,5.4 0.3,6.2 0.4,7 L4.2,22.9 C4.5,24.3 5.8,25.2 7.1,25.2 C7.3,25.2 7.6,25.2 7.8,25.1 L20.3,22.1 C21.1,21.9 21.7,21.4 22.2,20.7 C22.6,20 22.7,19.2 22.6,18.4 L21.7,14.8 C21.4,13.5 20.3,12.6 19,12.5 L18.2,9.3 C18.5,9.1 18.8,8.8 19,8.4 C19.4,7.7 19.5,6.9 19.4,6.1 L18.5,2.5 C18.3,1.2 17.1,0.2 15.7,0.2 Z" class="fill-primary"></path>
                </g>
                <g transform="translate(89.000000, 0.000000)" id="Shape">
                    <path d="M7.5,23 C6.8,23 6.2,22.5 6,21.9 L2.2,6 C2,5.2 2.5,4.4 3.3,4.2 L9.5,2.7 C10.4,2.5 11.3,2.4 12.1,2.4 C16.7,2.4 20.5,5.4 21.6,9.8 C22.9,15.2 19.6,20.3 14,21.6 L7.8,23.1 C7.7,23 7.6,23 7.5,23 Z M12,14.8 L12.4,14.7 C13.1,14.5 13.7,14.1 14.1,13.5 C14.5,12.9 14.6,12.1 14.4,11.4 C14.1,10.1 13.1,9.3 11.9,9.3 C11.7,9.3 11.4,9.3 11.1,9.4 L10.7,9.5 L12,14.8 Z" class="fill-neutral"></path>
                    <path d="M12.1,3.8 C16,3.8 19.3,6.3 20.2,10 C21.3,14.4 18.6,18.8 13.7,20 L7.5,21.5 L3.7,5.6 L9.9,4.1 C10.6,3.9 11.4,3.8 12.1,3.8 Z M10.9,16.6 L12.7,16.2 C14.9,15.7 16.4,13.5 15.8,11.1 C15.3,9.1 13.7,7.9 11.8,7.9 C11.4,7.9 11.1,7.9 10.7,8 L8.9,8.4 L10.9,16.6 Z M12.1,0.8 C11.1,0.8 10.1,0.9 9.1,1.2 L2.9,2.7 C1.3,3.1 0.3,4.7 0.7,6.3 L4.5,22.2 C4.8,23.6 6.1,24.5 7.4,24.5 C7.6,24.5 7.9,24.5 8.1,24.4 L14.3,22.9 C20.7,21.4 24.5,15.4 23,9.3 C21.8,4.2 17.4,0.8 12.1,0.8 Z M12.9,12.3 L12.7,11.3 C12.8,11.4 12.9,11.6 12.9,11.8 C12.9,11.9 13,12.1 12.9,12.3 Z" class="fill-primary"></path>
                </g>
            </g>
        </g>
    </g>
</svg>
